image/icon1.svg

<svg fill="none" height="24" viewBox="0 0 24 24" width="24" xmlns="http://www.w3.org/2000/svg"><path clip-rule="evenodd" d="m6.32895 0c-.41422 0-.75.335786-.75.75 0 .41421.33578.75.75.75h.75v8.03898l-6.745304 11.03772c-.916235 1.4993.162793 3.4233 1.919884 3.4233h18.65087c1.7571 0 2.8361-1.924 1.9198-3.4233l-6.7453-11.03772v-8.03898h.75c.4143 0 .75-.33579.75-.75 0-.414214-.3357-.75-.75-.75zm8.24995 3h-1.5c-.4142 0-.75.33579-.75.75s.3358.75.75.75h1.5v1.5h-1.5c-.4142 0-.75.33579-.75.75s.3358.75.75.75h1.5v1.5h-1.5c-.4142 0-.75.33579-.75.75 0 .4142.3358.75.75.75h1.8294l.9167 1.5h-1.2461c-.4142 0-.75.3358-.75.75s.3358.75.75.75h2.1628l.9166 1.5h-1.5794c-.4142 0-.75.3358-.75.75s.3358.75.75.75h2.4961l.9167 1.5h-1.9128c-.4142 0-.75.3358-.75.75s.3358.75.75.75h2.8294l1.136 1.8589c.3054.4998-.0542 1.1411-.6399 1.1411h-18.65087c-.5857 0-.94537-.6413-.63996-1.1411l6.85534-11.2178c.07196-.1178.11004-.2531.11004-.3911v-8.25h5.99995z" fill="#1e1e1e" fill-rule="evenodd"/></svg>

<svg width="24" height="24" viewBox="0 0 24 24" fill="none" xmlns="http://www.w3.org/2000/svg">
<path fill-rule="evenodd" clip-rule="evenodd" d="M6.32895 0C5.91473 0 5.57895 0.335786 5.57895 0.75C5.57895 1.16421 5.91473 1.5 6.32895 1.5H7.07895L7.07895 9.53898L0.333646 20.5767C-0.582589 22.076 0.496439 24 2.25353 24L20.9044 24C22.6615 24 23.7405 22.076 22.8242 20.5767L16.0789 9.53898V1.5H16.8289C17.2432 1.5 17.5789 1.16421 17.5789 0.75C17.5789 0.335786 17.2432 0 16.8289 0L6.32895 0ZM14.5789 3H13.0789C12.6647 3 12.3289 3.33579 12.3289 3.75C12.3289 4.16421 12.6647 4.5 13.0789 4.5L14.5789 4.5L14.5789 6L13.0789 6C12.6647 6 12.3289 6.33579 12.3289 6.75C12.3289 7.16421 12.6647 7.5 13.0789 7.5L14.5789 7.5V9H13.0789C12.6647 9 12.3289 9.33579 12.3289 9.75C12.3289 10.1642 12.6647 10.5 13.0789 10.5H14.9083L15.825 12H14.5789C14.1647 12 13.8289 12.3358 13.8289 12.75C13.8289 13.1642 14.1647 13.5 14.5789 13.5L16.7417 13.5L17.6583 15L16.0789 15C15.6647 15 15.3289 15.3358 15.3289 15.75C15.3289 16.1642 15.6647 16.5 16.0789 16.5H18.575L19.4917 18H17.5789C17.1647 18 16.8289 18.3358 16.8289 18.75C16.8289 19.1642 17.1647 19.5 17.5789 19.5H20.4083L21.5443 21.3589C21.8497 21.8587 21.4901 22.5 20.9044 22.5L2.25353 22.5C1.66783 22.5 1.30816 21.8587 1.61357 21.3589L8.46891 10.1411C8.54087 10.0233 8.57895 9.888 8.57895 9.75L8.57895 1.5L14.5789 1.5V3Z" fill="#1E1E1E"/>
</svg>
